outputs/icons/device/battery_round.svg

<svg xmlns="http://www.w3.org/2000/svg" width="1200" height="1200" fill="none"><g clip-path="url(#a)"><path fill="#000" d="M833.5 200H700v-50c0-27.5-22.5-50-50-50H550c-27.5 0-50 22.5-50 50v50H366.5c-36.5 0-66.5 30-66.5 66.5V1033c0 37 30 67 67 67h466c37 0 67-30 67-66.5v-767c0-36.5-30-66.5-66.5-66.5"/></g><defs><clipPath id="a"><path fill="#fff" d="M0 0h1200v1200H0z"/></clipPath></defs></svg>

<svg width="1200" height="1200" viewBox="0 0 1200 1200" fill="none" xmlns="http://www.w3.org/2000/svg"><g clip-path="url(#clip0_231_4446)"><path d="M833.5 200H700V150C700 122.5 677.5 100 650 100H550C522.5 100 500 122.5 500 150V200H366.5C330 200 300 230 300 266.5V1033C300 1070 330 1100 367 1100H833C870 1100 900 1070 900 1033.5V266.5C900 230 870 200 833.5 200Z" fill="#1D1E23"/></g><defs><clipPath id="clip0_231_4446"><path width="24" fill="white" d="M0 0H1200V1200H0V0z"/></clipPath></defs></svg>
